**kern	**kern	**dynam
*part1	*part1	*part1
*staff2	*staff1	*
*I"Piano	*	*
*clefF4	*clefG2	*
*k[]	*k[]	*
=1	=1	=1
*^	*	*
(2c 2e	1G	(2g 2cc 2ee	.
2d)	.	2g) 2b 2dd	.
*v	*v	*	*
=	=	=
1r	[1g [1b-X 1dd	pp
=	=	=
*	*^	*
1ryy	(6cc#X 6ee	(6g] 6b-]	.
.	6gg 6bb-X	6c#X 6e	.
.	6ff 6aa	6d 6f	.
.	6ee 6gg	6e 6g	.
.	6dd 6ff	6f 6a	.
.	6cc#) 6ee	6g) 6b-X	.
*	*v	*v	*
=	=	=
1DD 1D	1f 1a 1dd 1ff	.
=	=	=
*^	*	*
6r	1EE 1E	(6d 6g#X 6bn	.
(6G#X 6Bn	.	6dd 6ff	.
6A 6cn	.	6ccn 6ee	.
6B 6d	.	6b 6dd	.
6c 6e	.	6a 6cc	.
6d) 6f	.	6g#) 6b	.
*v	*v	*	*
=	=	=
1AA 1A	1e 1a 1cc	.
=	=	=
*^	*	*
(2D	1FF#X	(2A 2c 2d	<
2D#X)	.	2c) 2d#X 2cc	[ f >
*v	*v	*	*
=	=	=
*-	*-	*-
!!!system-decoration: {(s1,s2)}
